X:1
T:April.#20
T:april.#20
T:Kashiwa Daisuke 
C:Kashiwa Daisuke
%%score { 1 | 2 }
L:1/8
Q:1/4=54
M:4/4
K:Eb
V:1 treble nm="Piano" snm="Pno."
V:2 bass 
V:1
"^\n" z2 z/ G4 z/ G- | G6 z3/2 G/- | G6 z3/2 G/- | G<G G4 E<G- | G2 z/ G4 z/ G- | G2 z/ G4 z/ G- | %6
 G3/2G G3 G3/2G | G,<G G4 E<G- | G2 z/ G3/2 G3/2G3/2G- | G2 z/ G3/2 G3/2G3/2G- | %10
 G2 z/ G2 z/ G3/2G3/2 | z/ G3/2 G G2 z/ G/ EF |[K:Eb] F2 z/ G3/2 G3/2 G2 z/ | %13
 F2 z/ G3/2 G3/2G3/2G- | G3/2G G2 z G3/2G | F<G G3/2 G2 GEG/- | G3/2dG3/2 G3 G | d3/2 d4 z3/2 G | %18
 d2 z/ d2 z/ d3/2Gd/ | E<G dd z/ GG/ EF | F3/2dG3/2 G3 G | F3/2dG/d G3 G | d3/2 d3 dG/ dG/d/ | %23
 F<G G3/2 G2 G2 z/ |[Q:1/4=49]"^\n" b6 z G | b6 z G |[Q:1/4=54] b2 z/ G4 GG/- | G<G G4 E<G | %28
 c'2 z/ G4 z/ G | b2 z/ G4 z/ G | g3/2G G3 G3/2G | b<G G3 z/ GEG/ | %32
[Q:1/4=56] c'2 z/ G3/2 G3/2G3/2G | b2 z/ G3/2 G3/2G3/2G | f2 z/ G2 z/ G3/2GG/ | g<G G2 z/ GG/ E<G | %36
 c'2 z/ G3/2 G3/2G3/2G | b2 z/ G3/2 G3/2G3/2G |[Q:1/4=55]"^\n" f3/2GG3/2 G3/2G3/2G | %39
 g<G G3/2 G2 GEG/ |[Q:1/4=56]"^\n" c'2 z/ G3/2 G3/2G3/2G | b2 z/ G3/2 G3/2G3/2G | %42
 g2 z/ G2 z/ G3/2GG/- | G<G GG z/ GGG3/2 | c'2 z/ G3/2 G3/2G3/2G | d'2 z/ G3/2 G3/2G3/2G | %46
 e'3/2GG3/2 G3/2G3/2G |[Q:1/4=52] f'3/2G3/2G g'3/2GEG/ | %48
[Q:1/4=84]"^\n" c'd/e/ d/G/e/d/ G/e/d/G/ e/dg/ |[Q:1/4=86]"^\n" c'd/e/ d/G/e/d/ G/e/d/G/ e/dg/ | %50
 c'd/e/ d/G/e/d/ e/d/G/e/ d/G/d | [dd']/G/e/d/ G/d/G/e/- [ec']/G/d/G/ e/G/d/a/ | %52
 c'd/e/ d/G/e/d/ G/e/d/G/ e/dg/ | bd/e/ d/G/e/d/ G/e/d/G/ e/dg/ | gd/G/ d/G/e/d/ G/e/d/G/ e/da/- | %55
[M:3/4] ae/d/ G/e/d/[Gg]/ [dd']/[ee']/[dd']/[Gg]/ |[M:2/4][Q:1/4=136] [dd'][ee'] [dd'][cc'] | %57
[M:4/4][Q:1/4=86]"^\n" C6 z E | D3/2B,3/2 G,4 F, | G,6 z B, | [G,C]4 [G,B,E]4 | [CF]6 z E | %62
 [DF]6 z G |[Q:1/4=84] [CF]3/2C3/2 G,4 [B,D] | [EG]4 B3 [B,E]/[G,D]/ |[Q:1/4=86] [F,B,C]6 z [CE] | %66
 [DF]6 z E | [CG]6 z E | [CEB]4 [EGc]2 [CEB][EG] | [CF]3 [CF]3 z E | [CF]3 [CF]3 z E | %71
[Q:1/4=84] [CG]3 [CG]3 z E | [EB]4 [EB]>G d/e/g/e'/ | %73
[Q:1/4=88] g/B/g/B/ g/d/B/g/ d/B/g/d/ B/g/d/g/ | f/B/g/B/ g/d/B/g/ d/B/g/d/ B/g/d/g/ | %75
 g/B/g/B/ g/d/B/g/ B/g/d/B/ g/d/g/d/ | g/d/B/g/ d/g/d/B/ g/d/g/d/ B/d/g/B/ | %77
 g/B/g/B/ g/d/B/g/ d/B/g/d/ B/g/d/g/ | f/B/g/B/ g/d/B/g/ d/B/g/d/ B/g/d/g/ | %79
 g/B/g/d/ g/d/B/g/ d/B/g/d/ B/g/d/B/ |[Q:1/4=82] g/d/B/g/ d/B/g/d/ g/B/g/d/ g/B/g/d/ | %81
[Q:1/4=88] c/E/c/E/ c/G/E/c/ G/E/c/G/ E/c/G/c/ | B/E/c/E/ c/G/E/c/ G/E/c/G/ E/c/G/c/ | %83
 F/E/c/E/ c/G/E/c/ G/c/G/E/ c/G/c/G/ | c/G/E/c/ G/c/G/E/ c/G/c/G/ E/G/c/E/ | %85
 c/E/c/E/ c/G/E/c/ G/E/c/G/ E/c/G/c/ | B/E/c/E/ c/G/E/c/ G/E/c/G/ E/c/G/c/ | %87
 c/E/c/G/ c/G/E/c/ G/E/c/G/ E/c/G/E/ | c/G/E/c/ G/E/c/G/ c/E/c/G/ c/E/c/G/ | %89
 [cc']d/c/ d/cd/ cd/cd/c/d/ | [cb]d/c/ d/cd/ cd/cd/c/d/ | [cg]d/c/ d/cd/ c/d/c d/c/d/c/ | %92
 d/cd/ c/d/c d/c/d/c/ cd/c/ | [cc']d/c/ d/cd/ cd/cd/c/d/ | [cb]d/c/ d/cd/ cd/cd/c/d/ | %95
 [cc']d/c/ d/cd/ cd/cd/c | d/cd/ cd/c/ d/c/d/c/ d/c/d/c/ | [cc']c/d/ c/dc/ dc/dc/d/c/ | %98
 [cb]c/d/ c/dc/ dc/dc/d/c/ | [cf]c/d/ c/dc/ d/c/d c/d/c/d/ | c/dc/ d/c/d c/d/c/d/ c/-c/c/d/ | %101
 [cc']d/c/ d/cd/ cd/cd/c/d/ | [cb]d/c/ d/cd/ cd/cd/c/d/ | [cc']d/c/ d/cd/ cd/cd/c | %104
[M:2/4][Q:1/4=88] d/cd/ cd/c/ |[Q:1/4=168]"^\n" dc dc |[Q:1/4=140] df gb |[M:4/4][Q:1/4=60] c8 | %108
[Q:1/4=56] b8 |[Q:1/4=53]"^.5\n" g8 | b6 E2 |[Q:1/4=52] c'8 |[Q:1/4=51]"^.5" b8 |[Q:1/4=42] g8 | %114
[Q:1/4=36]"^\n" z8 |] %115
V:2
 A,,,8 | B,,,8 | A,,,8 | B,,,8 | [A,,,A,,C,]8 | [B,,,B,,D,]8 | [C,,C,G,]8- | [C,,C,G,]8 | %8
 [A,,E,-]2 [A,,E,-]2 [A,,E,-]2 [A,,E,]2 | [B,,F,-]2 [B,,F,-]2 [B,,F,-]2 [B,,F,]2 | %10
 [C,G,-]2 [C,G,-]2 [C,G,-]2 [C,G,-][B,,G,] | [C,E,-]2 [C,E,-]2 [C,E,-]2 [C,E,]2 | %12
[K:Eb] [A,,E,-]2 [A,,E,-]2 [A,,E,-]2 [A,,E,]2 | [B,,F,-]2 [B,,F,-]2 [B,,F,-]2 [B,,F,]2 | %14
 [C,G,-]2 [C,G,-]2 [C,G,-]2 [C,G,]2 | [E,C-]2 [E,C-]2 [E,C-]2 [E,C-][D,C] | %16
 [A,,E,-]2 [A,,E,-]2 [A,,E,-]2 [A,,E,]2 | [B,,F,-]2 [B,,F,-]2 [B,,F,-]2 [B,,F,]2 | %18
 [C,G,-]2 [C,G,-]2 [C,G,-]2 [C,G,-]2 | [C,G,-]2 [C,G,-]2 [C,G,-]2 [C,G,]2 | %20
 [A,,E,-]2 [A,,E,-]2 [A,,E,-]2 [A,,E,]2 | [B,,F,-]2 [B,,F,-]2 [B,,F,-]2 [B,,F,]2 | %22
 [C,G,-]2 [C,G,-]2 [C,G,-]2 [C,G,]2 | [E,C-]2 [E,C-]2 [E,C]4 | A,,,8 | B,,,8 | C,,8 | C,,,8 | %28
 A,,,8 | B,,,8 | C,,8 | C,,8 | A,,,8 | B,,,8 | C,,8 | C,,8 | A,,,8 | B,,,8 | C,,8 | C,,8 | %40
 [A,,,E,,-]2 [A,,,E,,-]2 [A,,,E,,-]2 [A,,,E,,]2 | [B,,,F,,-]2 [B,,,F,,-]2 [B,,,F,,-]2 [B,,,F,,]2 | %42
 [C,,G,,-]2 [C,,G,,-]2 [C,,G,,-]2 [C,,G,,]2 | [C,,E,,-]2 [C,,E,,-]2 [C,,E,,-]2 [C,,E,,]2 | %44
 [A,,,E,,-]2 [A,,,E,,-]2 [A,,,E,,-]2 [A,,,E,,]2 | [B,,,F,,-]2 [B,,,F,,-]2 [B,,,F,,-]2 [B,,,F,,]2 | %46
 [C,,G,,-]2 [C,,G,,-]2 [C,,G,,-]2 [C,,G,,]2 | [E,C-]2 [E,C-]2 [E,C]4 | %48
 [A,,E,-]2 [A,,E,-]2 [A,,E,-]2 [A,,E,]2 | [B,,F,-]2 [B,,F,-]2 [B,,F,-]2 [B,,F,]2 | %50
 [C,G,-]2 [C,G,-]2 [C,G,-]2 [C,G,]2 | [C,E,-]2 [C,E,-]2 [C,E,]2 [C,E,]F, | %52
 [A,,E,-]2 [A,,E,-]2 [A,,E,-]2 [A,,E,]2 | [B,,F,-]2 [B,,F,-]2 [B,,F,-]2 [B,,F,]2 | %54
 [C,G,-]2 [C,G,-]2 [C,G,-]2 [C,G,]2 |[M:3/4] C,6- |[M:2/4] C,4 | %57
[M:4/4] A,,,3/2A,,,3/2 A,,,2 A,,, E,,2 | B,,,3/2B,,,3/2 B,,,2 B,,, F,,2 | %59
 C,,3/2C,,3/2 C,,2 C,,G,,F,, | C,,3/2C,,3/2C,,- C,,C,,E,,F,, | %61
 [A,,,E,,]3/2[A,,,E,,]3/2 [A,,,E,,]2 A,,,E,,A,, | [B,,,F,,]3/2[B,,,F,,]3/2 [B,,,F,,]2 B,,,F,,G,, | %63
 [C,,G,,]3/2[C,,G,,]3/2 [C,,G,,]2 C,,G,,F,, | [E,,B,,]3/2[E,,B,,]3/2 [E,,B,,]2 [E,,B,,] [E,,B,,]2 | %65
 [A,,,E,,]3/2[A,,,E,,]3/2 [A,,,E,,]2 A,,,E,,A,, | [B,,,F,,]3/2[B,,,F,,]3/2 [B,,,F,,]2 B,,, F,,2 | %67
 [C,,G,,]3/2[C,,G,,]3/2 [C,,G,,]2 C,, G,,2 | [C,,E,,]3/2[C,,E,,]3/2 [C,,E,,]2 C,, G,,2 | %69
 [A,,,E,,]3/2[A,,,E,,]3/2 [A,,,E,,]2 A,,,E,,A,, | [B,,,F,,]3/2[B,,,F,,]3/2 [B,,,F,,]2 B,,,F,,B,, | %71
 [C,,G,,]3/2[C,,G,,]3/2 [C,,G,,]2 C,,G,,C, | [E,,B,,]3/2[E,,B,,]3/2 [E,,B,,]3 [E,,B,,]G,, | %73
 [E,,B,,] z E,, z E,, z E,,E,,/G,,/ | [F,,C,] z F,, z F,, z F,,F,,/^F,,/ | %75
 [G,,B,,D,] z G,, z G,, z G,,G,,/=B,,/ | [G,,B,,D,] z G,, z G,, z [G,,B,,]G,, | %77
 [E,,B,,] z E,, z E,, z E,,/-E,,/E,,/G,,/ | [F,,C,] z F,, z F,, z F,,/-F,,/F,,/^F,,/ | %79
 [G,,B,,D,] z G,, z G,, z G,,=B,, | [B,,G,] z B,, z B,, z .B,,.=A,, | A,,,A,,, A,,,2 A,,,2 A,,,2 | %82
 B,,,2 B,,,2 B,,,2 B,,,2 | C,,2 C,,2 C,,2 C,,2 | C,,2 C,,2 C,,2 E,,D,, | A,,,2 A,,,2 A,,,2 A,,,2 | %86
 B,,,2 B,,,2 B,,,2 B,,,2 | C,,2 C,,2 C,,2 C,,2 | [E,,C,-]2 [E,,C,-]2 [E,,C,-]2 [E,,C,-][D,,C,] | %89
 [A,,,E,,-]2 [A,,,E,,-]2 [A,,,E,,-]2 [A,,,E,,-][A,,,E,,] | %90
 [B,,,F,,-]2 [B,,,F,,-]2 [B,,,F,,-]2 [B,,,F,,-][B,,,F,,] | %91
 [C,,G,,-]2 [C,,G,,-]2 [C,,G,,-][C,,G,,-] [C,,G,,]2 | %92
 [C,,E,,-]2 [C,,E,,-]2 [C,,E,,-][C,,E,,-][C,,E,,-][C,,E,,] | %93
 [A,,,E,,-]2 [A,,,E,,-]2 [A,,,E,,-]2 [A,,,E,,-][A,,,E,,] | %94
 [B,,,F,,-]2 [B,,,F,,-]2 [B,,,F,,-]2 [B,,,F,,-][B,,,F,,] | %95
 [C,,G,,-]2 [C,,G,,-]2 [C,,G,,-]2 [C,,G,,-][C,,G,,] | %96
 [E,,C,-]2 [E,,C,-]2 [E,,C,-]2 [E,,C,]/E,/D,,/E,,/ | %97
 [A,,,E,,-]2 [A,,,E,,-]2 [A,,,E,,-]2 [A,,,E,,]2 | [B,,,F,,-]2 [B,,,F,,-]2 [B,,,F,,-]2 [B,,,F,,]2 | %99
 [C,,G,,-]2 [C,,G,,-]2 [C,,G,,-]2 [C,,G,,-][C,,G,,] | %100
 [C,,G,,-]2 [C,,G,,-]2 [C,,G,,-]2 [C,,G,,-][C,,G,,-]/[D,,G,,]/ | %101
 [A,,,E,,-]2 [A,,,E,,-]2 [A,,,E,,-]2 [A,,,E,,-][A,,,E,,] | %102
 [B,,,F,,-]2 [B,,,F,,-]2 [B,,,F,,-]2 [B,,,F,,]2 | %103
 [C,,G,,-]2 [C,,G,,-]2 [C,,G,,-]2 [C,,G,,-][C,,G,,] |[M:2/4] [E,,C,-]2 [E,,C,-]2 | [E,,C,]4 | %106
 C,F, [C,,G,,]2 |[M:4/4] [A,,,E,,]8 | B,,,8 | C,,8 | C,,8 | A,,,8 | B,,,8 | C,,8 | %114
 !fermata![C,,,C,,]8 |] %115

